report_00007_2020-12-11T15:55:29.892Z/speed-index/comparison/sorted/3_vs_4.svg

<svg width="640" height="500" xmlns="http://www.w3.org/2000/svg" xmlns:xlink="http://www.w3.org/1999/xlink"><path fill="#fff" d="M0 0h640v500H0z"/><defs><path id="d" stroke-width=".222" stroke="currentColor" d="M-1-1h2v2h-2z"/><path id="b" stroke-width=".222" stroke="currentColor" d="M0-1.33l-1.33 2h2.66z"/><path id="f" stroke-width=".222" stroke="currentColor" d="M0 1.33L1.265.411.782-1.067l-1.564-.009-.483 1.487z"/><use xlink:href="#b" id="c" stroke="currentColor" transform="rotate(180)"/><use xlink:href="#d" id="e" stroke="currentColor" transform="rotate(45)"/><circle id="a" stroke-width=".222" stroke="currentColor" cx="0" cy="0" r="1"/></defs><g fill="none" color="#000" stroke="currentColor"><path stroke="#000" d="M62.2 424.9h9m543.8 0h-9"/><text transform="translate(53.9 428.8)" stroke="none" fill="#000" font-family="Arial" font-size="12" text-anchor="end"><tspan>2500</tspan></text></g><g fill="none" color="#000" stroke="currentColor"><path stroke="#000" d="M62.2 343.4h9m543.8 0h-9"/><text transform="translate(53.9 347.3)" stroke="none" fill="#000" font-family="Arial" font-size="12" text-anchor="end"><tspan>3000</tspan></text></g><g fill="none" color="#000" stroke="currentColor"><path stroke="#000" d="M62.2 261.9h9m543.8 0h-9"/><text transform="translate(53.9 265.8)" stroke="none" fill="#000" font-family="Arial" font-size="12" text-anchor="end"><tspan>3500</tspan></text></g><g fill="none" color="#000" stroke="currentColor"><path stroke="#000" d="M62.2 180.4h9m543.8 0h-9"/><text transform="translate(53.9 184.3)" stroke="none" fill="#000" font-family="Arial" font-size="12" text-anchor="end"><tspan>4000</tspan></text></g><g fill="none" color="#000" stroke="currentColor"><path stroke="#000" d="M62.2 98.9h9m543.8 0h-9"/><text transform="translate(53.9 102.8)" stroke="none" fill="#000" font-family="Arial" font-size="12" text-anchor="end"><tspan>4500</tspan></text></g><g fill="none" color="#000" stroke="currentColor"><path stroke="#000" d="M62.2 17.4h9m543.8 0h-9"/><text transform="translate(53.9 21.3)" stroke="none" fill="#000" font-family="Arial" font-size="12" text-anchor="end"><tspan>5000</tspan></text></g><g fill="none" color="#000" stroke="currentColor"><path stroke="#000" d="M62.2 428v-9m0-400.9v9"/><text transform="translate(62.2 449.9)" stroke="none" fill="#000" font-family="Arial" font-size="12" text-anchor="middle"><tspan>0</tspan></text></g><g fill="none" color="#000" stroke="currentColor"><path stroke="#000" d="M118 428v-9m0-400.9v9"/><text transform="translate(118 449.9)" stroke="none" fill="#000" font-family="Arial" font-size="12" text-anchor="middle"><tspan>10</tspan></text></g><g fill="none" color="#000" stroke="currentColor"><path stroke="#000" d="M173.9 428v-9m0-400.9v9"/><text transform="translate(173.9 449.9)" stroke="none" fill="#000" font-family="Arial" font-size="12" text-anchor="middle"><tspan>20</tspan></text></g><g fill="none" color="#000" stroke="currentColor"><path stroke="#000" d="M229.7 428v-9m0-400.9v9"/><text transform="translate(229.7 449.9)" stroke="none" fill="#000" font-family="Arial" font-size="12" text-anchor="middle"><tspan>30</tspan></text></g><g fill="none" color="#000" stroke="currentColor"><path stroke="#000" d="M285.6 428v-9m0-400.9v9"/><text transform="translate(285.6 449.9)" stroke="none" fill="#000" font-family="Arial" font-size="12" text-anchor="middle"><tspan>40</tspan></text></g><g fill="none" color="#000" stroke="currentColor"><path stroke="#000" d="M341.4 428v-9m0-400.9v9"/><text transform="translate(341.4 449.9)" stroke="none" fill="#000" font-family="Arial" font-size="12" text-anchor="middle"><tspan>50</tspan></text></g><g fill="none" color="#000" stroke="currentColor"><path stroke="#000" d="M397.2 428v-9m0-400.9v9"/><text transform="translate(397.2 449.9)" stroke="none" fill="#000" font-family="Arial" font-size="12" text-anchor="middle"><tspan>60</tspan></text></g><g fill="none" color="#000" stroke="currentColor"><path stroke="#000" d="M453.1 428v-9m0-400.9v9"/><text transform="translate(453.1 449.9)" stroke="none" fill="#000" font-family="Arial" font-size="12" text-anchor="middle"><tspan>70</tspan></text></g><g fill="none" color="#000" stroke="currentColor"><path stroke="#000" d="M508.9 428v-9m0-400.9v9"/><text transform="translate(508.9 449.9)" stroke="none" fill="#000" font-family="Arial" font-size="12" text-anchor="middle"><tspan>80</tspan></text></g><g fill="none" color="#000" stroke="currentColor"><path stroke="#000" d="M564.7 428v-9m0-400.9v9"/><text transform="translate(564.7 449.9)" stroke="none" fill="#000" font-family="Arial" font-size="12" text-anchor="middle"><tspan>90</tspan></text></g><path stroke="#000" d="M62.2 18.1V428H615V18.1H62.2z" fill="none" color="#000"/><text transform="translate(279.8 467.9)" stroke="none" fill="#000" font-family="Arial" font-size="12" text-anchor="end" color="#000"><tspan>pages+cached+nointeractive</tspan></text><path stroke="#9400D3" d="M288.1 464h42.2M62.2 207.8l5.6-17.5 5.6-42.3 5.6-.5 5.5-.2 5.6-.1 5.6-.2 5.6-.9 5.6-.3 5.6-.1 5.5-.6 5.6-.4 5.6-.7 5.6-.2 5.6-.5 5.6-.8 5.5-.2 5.6-1 5.6-.2 5.6-.1 5.6-.2 5.6-1 5.5-.5 5.6-.9 5.6-1 5.6-.2 5.6-2.6 5.6-.1h16.7l5.6-.6 5.6-.3h5.6l5.6-.2 5.5-.4h5.6l5.6-.3h5.6l5.6-.2 5.6-.1 5.5-.1 5.6-.1 5.6-.4 5.6-.1 5.6-.1 5.6-.1h5.5l5.6-.1 5.6-.1 5.6-.1 5.6-.2 5.6-.2 5.5-.4h5.6l5.6-.3 5.6-.3 5.6-.4h5.6l5.5-.1 5.6-.1 5.6-.1 5.6-.1 5.6-.7 5.6-.2h11.1l5.6-.5 5.6-.7 5.6-.2 5.6-.4 5.6-1 5.5-1.2 5.6-1.7 5.6-6.3 5.6-57.7 5.6-9.5 5.6-2.1 5.5-.4 5.6-.3 5.6-.9 5.6-.9 5.6-.3 5.6-2 5.5-1 5.6-.6 5.6-.8 5.6-4.3 5.6-.2 5.6-.6 5.5-.8 5.6-.4 5.6-.6 5.6-1.8 5.6-1.4 5.6-.3 5.5-.1 5.6-.1 5.6-.9L615 26" fill="none" color="#000"/><text transform="translate(279.8 485.9)" stroke="none" fill="#000" font-family="Arial" font-size="12" text-anchor="end" color="#000"><tspan>pages+cached+noadtech</tspan></text><path stroke="#009E73" d="M288.1 482h42.2M62.2 420.1h5.6l5.6-.4 5.6-.5 5.5-.9h11.2l5.6-.5h5.6l5.6-.4h5.5l5.6-.3 5.6-.5 5.6-.1 5.6-.2 5.6-.4 5.5-.4 5.6-.3 5.6-.1h5.6l5.6-.2 5.6-.2 5.5-.1 5.6-.2h5.6l5.6-.3h5.6l5.6-.3 5.5-.5 5.6-.3H240.9l5.6-.9 5.6-.2 5.5-.7 5.6-.3 5.6-.1 5.6-.1 5.6-.7 5.6-7.3 5.5-.7 5.6-.3 5.6-.2 5.6-.4 5.6-.5h5.6l5.5-.1 5.6-.1 5.6-.1 5.6-.3h11.2l5.5-.1h5.6l5.6-.1 5.6-.6h5.6l5.6-.1 5.5-.1 5.6-.2 5.6-.2h5.6l5.6-.1h5.6l5.5-.1 5.6-.2 5.6-.2h5.6l5.6-.6 5.6-.2h11.1l5.6-.1 5.6-.1h5.6l5.6-.1 5.6-.1 5.5-.4h5.6l5.6-.3h11.2l5.6-.1 5.5-.2H548l5.6-.1h5.6l5.5-.2 5.6-.2 5.6-.1h5.6l5.6-.4h5.6l5.5-.2 5.6-.2h5.6l5.6-.7" fill="none" color="#000"/><text transform="translate(554.4 467.9)" stroke="none" fill="#000" font-family="Arial" font-size="12" text-anchor="end" color="#000"><tspan>score p10=3387</tspan></text><path stroke="#56B4E9" d="M562.7 464h42.2M62.2 280.3H615" fill="none" color="#000"/><g><text transform="translate(554.4 485.9)" stroke="none" fill="#000" font-family="Arial" font-size="12" text-anchor="end" color="#000"><tspan>score median=5800</tspan></text><path stroke="#E69F00" d="M562.7 482h42.2" fill="none" color="#000"/></g><g fill="none" color="#000" stroke="currentColor"><path stroke="#000" d="M62.2 18.1V428H615V18.1H62.2z"/></g></svg>

<?xml version="1.0" encoding="utf-8"  standalone="no"?>
<svg 
 width="640" height="500"
 viewBox="0 0 640 500"
 xmlns="http://www.w3.org/2000/svg"
 xmlns:xlink="http://www.w3.org/1999/xlink"
>

<title>Gnuplot</title>
<desc>Produced by GNUPLOT 5.4 patchlevel 0 </desc>

<g id="gnuplot_canvas">

<rect x="0" y="0" width="640" height="500" fill="#ffffff"/>
<defs>

	<circle id='gpDot' r='0.5' stroke-width='0.5' stroke='currentColor'/>
	<path id='gpPt0' stroke-width='0.222' stroke='currentColor' d='M-1,0 h2 M0,-1 v2'/>
	<path id='gpPt1' stroke-width='0.222' stroke='currentColor' d='M-1,-1 L1,1 M1,-1 L-1,1'/>
	<path id='gpPt2' stroke-width='0.222' stroke='currentColor' d='M-1,0 L1,0 M0,-1 L0,1 M-1,-1 L1,1 M-1,1 L1,-1'/>
	<rect id='gpPt3' stroke-width='0.222' stroke='currentColor' x='-1' y='-1' width='2' height='2'/>
	<rect id='gpPt4' stroke-width='0.222' stroke='currentColor' fill='currentColor' x='-1' y='-1' width='2' height='2'/>
	<circle id='gpPt5' stroke-width='0.222' stroke='currentColor' cx='0' cy='0' r='1'/>
	<use xlink:href='#gpPt5' id='gpPt6' fill='currentColor' stroke='none'/>
	<path id='gpPt7' stroke-width='0.222' stroke='currentColor' d='M0,-1.33 L-1.33,0.67 L1.33,0.67 z'/>
	<use xlink:href='#gpPt7' id='gpPt8' fill='currentColor' stroke='none'/>
	<use xlink:href='#gpPt7' id='gpPt9' stroke='currentColor' transform='rotate(180)'/>
	<use xlink:href='#gpPt9' id='gpPt10' fill='currentColor' stroke='none'/>
	<use xlink:href='#gpPt3' id='gpPt11' stroke='currentColor' transform='rotate(45)'/>
	<use xlink:href='#gpPt11' id='gpPt12' fill='currentColor' stroke='none'/>
	<path id='gpPt13' stroke-width='0.222' stroke='currentColor' d='M0,1.330 L1.265,0.411 L0.782,-1.067 L-0.782,-1.076 L-1.265,0.411 z'/>
	<use xlink:href='#gpPt13' id='gpPt14' fill='currentColor' stroke='none'/>
	<filter id='textbox' filterUnits='objectBoundingBox' x='0' y='0' height='1' width='1'>
	  <feFlood flood-color='#FFFFFF' flood-opacity='1' result='bgnd'/>
	  <feComposite in='SourceGraphic' in2='bgnd' operator='atop'/>
	</filter>
	<filter id='greybox' filterUnits='objectBoundingBox' x='0' y='0' height='1' width='1'>
	  <feFlood flood-color='lightgrey' flood-opacity='1' result='grey'/>
	  <feComposite in='SourceGraphic' in2='grey' operator='atop'/>
	</filter>
</defs>
<g fill="none" color="#FFFFFF" stroke="black" stroke-width="1.00" stroke-linecap="butt" stroke-linejoin="miter">
</g>
<g fill="none" color="black" stroke="currentColor" stroke-width="1.00" stroke-linecap="butt" stroke-linejoin="miter">
	<path stroke='black'  d='M62.2,424.9 L71.2,424.9 M615.0,424.9 L606.0,424.9  '/>	<g transform="translate(53.9,428.8)" stroke="none" fill="black" font-family="Arial" font-size="12.00"  text-anchor="end">
		<text><tspan font-family="Arial" > 2500</tspan></text>
	</g>
</g>
<g fill="none" color="black" stroke="currentColor" stroke-width="1.00" stroke-linecap="butt" stroke-linejoin="miter">
	<path stroke='black'  d='M62.2,343.4 L71.2,343.4 M615.0,343.4 L606.0,343.4  '/>	<g transform="translate(53.9,347.3)" stroke="none" fill="black" font-family="Arial" font-size="12.00"  text-anchor="end">
		<text><tspan font-family="Arial" > 3000</tspan></text>
	</g>
</g>
<g fill="none" color="black" stroke="currentColor" stroke-width="1.00" stroke-linecap="butt" stroke-linejoin="miter">
	<path stroke='black'  d='M62.2,261.9 L71.2,261.9 M615.0,261.9 L606.0,261.9  '/>	<g transform="translate(53.9,265.8)" stroke="none" fill="black" font-family="Arial" font-size="12.00"  text-anchor="end">
		<text><tspan font-family="Arial" > 3500</tspan></text>
	</g>
</g>
<g fill="none" color="black" stroke="currentColor" stroke-width="1.00" stroke-linecap="butt" stroke-linejoin="miter">
	<path stroke='black'  d='M62.2,180.4 L71.2,180.4 M615.0,180.4 L606.0,180.4  '/>	<g transform="translate(53.9,184.3)" stroke="none" fill="black" font-family="Arial" font-size="12.00"  text-anchor="end">
		<text><tspan font-family="Arial" > 4000</tspan></text>
	</g>
</g>
<g fill="none" color="black" stroke="currentColor" stroke-width="1.00" stroke-linecap="butt" stroke-linejoin="miter">
	<path stroke='black'  d='M62.2,98.9 L71.2,98.9 M615.0,98.9 L606.0,98.9  '/>	<g transform="translate(53.9,102.8)" stroke="none" fill="black" font-family="Arial" font-size="12.00"  text-anchor="end">
		<text><tspan font-family="Arial" > 4500</tspan></text>
	</g>
</g>
<g fill="none" color="black" stroke="currentColor" stroke-width="1.00" stroke-linecap="butt" stroke-linejoin="miter">
	<path stroke='black'  d='M62.2,17.4 L71.2,17.4 M615.0,17.4 L606.0,17.4  '/>	<g transform="translate(53.9,21.3)" stroke="none" fill="black" font-family="Arial" font-size="12.00"  text-anchor="end">
		<text><tspan font-family="Arial" > 5000</tspan></text>
	</g>
</g>
<g fill="none" color="black" stroke="currentColor" stroke-width="1.00" stroke-linecap="butt" stroke-linejoin="miter">
	<path stroke='black'  d='M62.2,428.0 L62.2,419.0 M62.2,18.1 L62.2,27.1  '/>	<g transform="translate(62.2,449.9)" stroke="none" fill="black" font-family="Arial" font-size="12.00"  text-anchor="middle">
		<text><tspan font-family="Arial" > 0</tspan></text>
	</g>
</g>
<g fill="none" color="black" stroke="currentColor" stroke-width="1.00" stroke-linecap="butt" stroke-linejoin="miter">
	<path stroke='black'  d='M118.0,428.0 L118.0,419.0 M118.0,18.1 L118.0,27.1  '/>	<g transform="translate(118.0,449.9)" stroke="none" fill="black" font-family="Arial" font-size="12.00"  text-anchor="middle">
		<text><tspan font-family="Arial" > 10</tspan></text>
	</g>
</g>
<g fill="none" color="black" stroke="currentColor" stroke-width="1.00" stroke-linecap="butt" stroke-linejoin="miter">
	<path stroke='black'  d='M173.9,428.0 L173.9,419.0 M173.9,18.1 L173.9,27.1  '/>	<g transform="translate(173.9,449.9)" stroke="none" fill="black" font-family="Arial" font-size="12.00"  text-anchor="middle">
		<text><tspan font-family="Arial" > 20</tspan></text>
	</g>
</g>
<g fill="none" color="black" stroke="currentColor" stroke-width="1.00" stroke-linecap="butt" stroke-linejoin="miter">
	<path stroke='black'  d='M229.7,428.0 L229.7,419.0 M229.7,18.1 L229.7,27.1  '/>	<g transform="translate(229.7,449.9)" stroke="none" fill="black" font-family="Arial" font-size="12.00"  text-anchor="middle">
		<text><tspan font-family="Arial" > 30</tspan></text>
	</g>
</g>
<g fill="none" color="black" stroke="currentColor" stroke-width="1.00" stroke-linecap="butt" stroke-linejoin="miter">
	<path stroke='black'  d='M285.6,428.0 L285.6,419.0 M285.6,18.1 L285.6,27.1  '/>	<g transform="translate(285.6,449.9)" stroke="none" fill="black" font-family="Arial" font-size="12.00"  text-anchor="middle">
		<text><tspan font-family="Arial" > 40</tspan></text>
	</g>
</g>
<g fill="none" color="black" stroke="currentColor" stroke-width="1.00" stroke-linecap="butt" stroke-linejoin="miter">
	<path stroke='black'  d='M341.4,428.0 L341.4,419.0 M341.4,18.1 L341.4,27.1  '/>	<g transform="translate(341.4,449.9)" stroke="none" fill="black" font-family="Arial" font-size="12.00"  text-anchor="middle">
		<text><tspan font-family="Arial" > 50</tspan></text>
	</g>
</g>
<g fill="none" color="black" stroke="currentColor" stroke-width="1.00" stroke-linecap="butt" stroke-linejoin="miter">
	<path stroke='black'  d='M397.2,428.0 L397.2,419.0 M397.2,18.1 L397.2,27.1  '/>	<g transform="translate(397.2,449.9)" stroke="none" fill="black" font-family="Arial" font-size="12.00"  text-anchor="middle">
		<text><tspan font-family="Arial" > 60</tspan></text>
	</g>
</g>
<g fill="none" color="black" stroke="currentColor" stroke-width="1.00" stroke-linecap="butt" stroke-linejoin="miter">
	<path stroke='black'  d='M453.1,428.0 L453.1,419.0 M453.1,18.1 L453.1,27.1  '/>	<g transform="translate(453.1,449.9)" stroke="none" fill="black" font-family="Arial" font-size="12.00"  text-anchor="middle">
		<text><tspan font-family="Arial" > 70</tspan></text>
	</g>
</g>
<g fill="none" color="black" stroke="currentColor" stroke-width="1.00" stroke-linecap="butt" stroke-linejoin="miter">
	<path stroke='black'  d='M508.9,428.0 L508.9,419.0 M508.9,18.1 L508.9,27.1  '/>	<g transform="translate(508.9,449.9)" stroke="none" fill="black" font-family="Arial" font-size="12.00"  text-anchor="middle">
		<text><tspan font-family="Arial" > 80</tspan></text>
	</g>
</g>
<g fill="none" color="black" stroke="currentColor" stroke-width="1.00" stroke-linecap="butt" stroke-linejoin="miter">
	<path stroke='black'  d='M564.7,428.0 L564.7,419.0 M564.7,18.1 L564.7,27.1  '/>	<g transform="translate(564.7,449.9)" stroke="none" fill="black" font-family="Arial" font-size="12.00"  text-anchor="middle">
		<text><tspan font-family="Arial" > 90</tspan></text>
	</g>
</g>
<g fill="none" color="black" stroke="currentColor" stroke-width="1.00" stroke-linecap="butt" stroke-linejoin="miter">
</g>
<g fill="none" color="black" stroke="currentColor" stroke-width="1.00" stroke-linecap="butt" stroke-linejoin="miter">
	<path stroke='black'  d='M62.2,18.1 L62.2,428.0 L615.0,428.0 L615.0,18.1 L62.2,18.1 Z  '/></g>
<g fill="none" color="black" stroke="currentColor" stroke-width="1.00" stroke-linecap="butt" stroke-linejoin="miter">
</g>
	<g id="gnuplot_plot_1" ><title>pages+cached+nointeractive</title>
<g fill="none" color="black" stroke="currentColor" stroke-width="1.00" stroke-linecap="butt" stroke-linejoin="miter">
	<g transform="translate(279.8,467.9)" stroke="none" fill="black" font-family="Arial" font-size="12.00"  text-anchor="end">
		<text><tspan font-family="Arial" >pages+cached+nointeractive</tspan></text>
	</g>
</g>
<g fill="none" color="black" stroke="currentColor" stroke-width="1.00" stroke-linecap="butt" stroke-linejoin="miter">
	<path stroke='rgb(148,   0, 211)'  d='M288.1,464.0 L330.3,464.0 M62.2,207.8 L67.8,190.3 L73.4,148.0 L79.0,147.5 L84.5,147.3 L90.1,147.2
		L95.7,147.0 L101.3,146.1 L106.9,145.8 L112.5,145.7 L118.0,145.1 L123.6,144.7 L129.2,144.0 L134.8,143.8
		L140.4,143.3 L146.0,142.5 L151.5,142.3 L157.1,141.3 L162.7,141.1 L168.3,141.0 L173.9,140.8 L179.5,139.8
		L185.0,139.3 L190.6,138.4 L196.2,137.4 L201.8,137.2 L207.4,134.6 L213.0,134.5 L218.5,134.5 L224.1,134.5
		L229.7,134.5 L235.3,133.9 L240.9,133.6 L246.5,133.6 L252.1,133.4 L257.6,133.0 L263.2,133.0 L268.8,132.7
		L274.4,132.7 L280.0,132.5 L285.6,132.4 L291.1,132.3 L296.7,132.2 L302.3,131.8 L307.9,131.7 L313.5,131.6
		L319.1,131.5 L324.6,131.5 L330.2,131.4 L335.8,131.3 L341.4,131.2 L347.0,131.0 L352.6,130.8 L358.1,130.4
		L363.7,130.4 L369.3,130.1 L374.9,129.8 L380.5,129.4 L386.1,129.4 L391.6,129.3 L397.2,129.2 L402.8,129.1
		L408.4,129.0 L414.0,128.3 L419.6,128.1 L425.1,128.1 L430.7,128.1 L436.3,127.6 L441.9,126.9 L447.5,126.7
		L453.1,126.3 L458.7,125.3 L464.2,124.1 L469.8,122.4 L475.4,116.1 L481.0,58.4 L486.6,48.9 L492.2,46.8
		L497.7,46.4 L503.3,46.1 L508.9,45.2 L514.5,44.3 L520.1,44.0 L525.7,42.0 L531.2,41.0 L536.8,40.4
		L542.4,39.6 L548.0,35.3 L553.6,35.1 L559.2,34.5 L564.7,33.7 L570.3,33.3 L575.9,32.7 L581.5,30.9
		L587.1,29.5 L592.7,29.2 L598.2,29.1 L603.8,29.0 L609.4,28.1 L615.0,26.0  '/></g>
	</g>
	<g id="gnuplot_plot_2" ><title>pages+cached+noadtech</title>
<g fill="none" color="black" stroke="currentColor" stroke-width="1.00" stroke-linecap="butt" stroke-linejoin="miter">
	<g transform="translate(279.8,485.9)" stroke="none" fill="black" font-family="Arial" font-size="12.00"  text-anchor="end">
		<text><tspan font-family="Arial" >pages+cached+noadtech</tspan></text>
	</g>
</g>
<g fill="none" color="black" stroke="currentColor" stroke-width="1.00" stroke-linecap="butt" stroke-linejoin="miter">
	<path stroke='rgb(  0, 158, 115)'  d='M288.1,482.0 L330.3,482.0 M62.2,420.1 L67.8,420.1 L73.4,419.7 L79.0,419.2 L84.5,418.3 L90.1,418.3
		L95.7,418.3 L101.3,417.8 L106.9,417.8 L112.5,417.4 L118.0,417.4 L123.6,417.1 L129.2,416.6 L134.8,416.5
		L140.4,416.3 L146.0,415.9 L151.5,415.5 L157.1,415.2 L162.7,415.1 L168.3,415.1 L173.9,414.9 L179.5,414.7
		L185.0,414.6 L190.6,414.4 L196.2,414.4 L201.8,414.1 L207.4,414.1 L213.0,413.8 L218.5,413.3 L224.1,413.0
		L229.7,413.0 L235.3,413.0 L240.9,413.0 L246.5,412.1 L252.1,411.9 L257.6,411.2 L263.2,410.9 L268.8,410.8
		L274.4,410.7 L280.0,410.0 L285.6,402.7 L291.1,402.0 L296.7,401.7 L302.3,401.5 L307.9,401.1 L313.5,400.6
		L319.1,400.6 L324.6,400.5 L330.2,400.4 L335.8,400.3 L341.4,400.0 L347.0,400.0 L352.6,400.0 L358.1,399.9
		L363.7,399.9 L369.3,399.8 L374.9,399.2 L380.5,399.2 L386.1,399.1 L391.6,399.0 L397.2,398.8 L402.8,398.6
		L408.4,398.6 L414.0,398.5 L419.6,398.5 L425.1,398.4 L430.7,398.2 L436.3,398.0 L441.9,398.0 L447.5,397.4
		L453.1,397.2 L458.7,397.2 L464.2,397.2 L469.8,397.1 L475.4,397.0 L481.0,397.0 L486.6,396.9 L492.2,396.8
		L497.7,396.4 L503.3,396.4 L508.9,396.1 L514.5,396.1 L520.1,396.1 L525.7,396.0 L531.2,395.8 L536.8,395.8
		L542.4,395.8 L548.0,395.8 L553.6,395.7 L559.2,395.7 L564.7,395.5 L570.3,395.3 L575.9,395.2 L581.5,395.2
		L587.1,394.8 L592.7,394.8 L598.2,394.6 L603.8,394.4 L609.4,394.4 L615.0,393.7  '/></g>
	</g>
	<g id="gnuplot_plot_3" ><title>score p10=3387</title>
<g fill="none" color="black" stroke="currentColor" stroke-width="1.00" stroke-linecap="butt" stroke-linejoin="miter">
	<g transform="translate(554.4,467.9)" stroke="none" fill="black" font-family="Arial" font-size="12.00"  text-anchor="end">
		<text><tspan font-family="Arial" >score p10=3387</tspan></text>
	</g>
</g>
<g fill="none" color="black" stroke="currentColor" stroke-width="1.00" stroke-linecap="butt" stroke-linejoin="miter">
	<path stroke='rgb( 86, 180, 233)'  d='M562.7,464.0 L604.9,464.0 M62.2,280.3 L67.8,280.3 L73.4,280.3 L79.0,280.3 L84.5,280.3 L90.1,280.3
		L95.7,280.3 L101.3,280.3 L106.9,280.3 L112.5,280.3 L118.0,280.3 L123.6,280.3 L129.2,280.3 L134.8,280.3
		L140.4,280.3 L146.0,280.3 L151.5,280.3 L157.1,280.3 L162.7,280.3 L168.3,280.3 L173.9,280.3 L179.5,280.3
		L185.0,280.3 L190.6,280.3 L196.2,280.3 L201.8,280.3 L207.4,280.3 L213.0,280.3 L218.5,280.3 L224.1,280.3
		L229.7,280.3 L235.3,280.3 L240.9,280.3 L246.5,280.3 L252.1,280.3 L257.6,280.3 L263.2,280.3 L268.8,280.3
		L274.4,280.3 L280.0,280.3 L285.6,280.3 L291.1,280.3 L296.7,280.3 L302.3,280.3 L307.9,280.3 L313.5,280.3
		L319.1,280.3 L324.6,280.3 L330.2,280.3 L335.8,280.3 L341.4,280.3 L347.0,280.3 L352.6,280.3 L358.1,280.3
		L363.7,280.3 L369.3,280.3 L374.9,280.3 L380.5,280.3 L386.1,280.3 L391.6,280.3 L397.2,280.3 L402.8,280.3
		L408.4,280.3 L414.0,280.3 L419.6,280.3 L425.1,280.3 L430.7,280.3 L436.3,280.3 L441.9,280.3 L447.5,280.3
		L453.1,280.3 L458.7,280.3 L464.2,280.3 L469.8,280.3 L475.4,280.3 L481.0,280.3 L486.6,280.3 L492.2,280.3
		L497.7,280.3 L503.3,280.3 L508.9,280.3 L514.5,280.3 L520.1,280.3 L525.7,280.3 L531.2,280.3 L536.8,280.3
		L542.4,280.3 L548.0,280.3 L553.6,280.3 L559.2,280.3 L564.7,280.3 L570.3,280.3 L575.9,280.3 L581.5,280.3
		L587.1,280.3 L592.7,280.3 L598.2,280.3 L603.8,280.3 L609.4,280.3 L615.0,280.3  '/></g>
	</g>
	<g id="gnuplot_plot_4" ><title>score median=5800</title>
<g fill="none" color="black" stroke="currentColor" stroke-width="1.00" stroke-linecap="butt" stroke-linejoin="miter">
	<g transform="translate(554.4,485.9)" stroke="none" fill="black" font-family="Arial" font-size="12.00"  text-anchor="end">
		<text><tspan font-family="Arial" >score median=5800</tspan></text>
	</g>
</g>
<g fill="none" color="black" stroke="currentColor" stroke-width="1.00" stroke-linecap="butt" stroke-linejoin="miter">
	<path stroke='rgb(230, 159,   0)'  d='M562.7,482.0 L604.9,482.0  '/></g>
	</g>
<g fill="none" color="#FFFFFF" stroke="rgb(230, 159,   0)" stroke-width="2.00" stroke-linecap="butt" stroke-linejoin="miter">
</g>
<g fill="none" color="black" stroke="currentColor" stroke-width="2.00" stroke-linecap="butt" stroke-linejoin="miter">
</g>
<g fill="none" color="black" stroke="black" stroke-width="1.00" stroke-linecap="butt" stroke-linejoin="miter">
</g>
<g fill="none" color="black" stroke="currentColor" stroke-width="1.00" stroke-linecap="butt" stroke-linejoin="miter">
	<path stroke='black'  d='M62.2,18.1 L62.2,428.0 L615.0,428.0 L615.0,18.1 L62.2,18.1 Z  '/></g>
<g fill="none" color="black" stroke="currentColor" stroke-width="1.00" stroke-linecap="butt" stroke-linejoin="miter">
</g>
</g>
</svg>
